X:870
T:Struan Robertson's Rant
R:Strathspey
B:The Athole Collection
M:C
L:1/8
K:E Minor
e|E/E/E G>A B>A B<d|D/D/D F>E D/E/F/G/ A<F|E/E/E G>A B>A B<e|
d>BA>F E/E/E E:|
|:g|e>fg>e b>eg>e|f<d d>f a/g/f/e/ d>f|e>fg>e b>eg>e|d>BA>F E/E/E E:|
|:B|G>BE>B G>BE>B|F>AD>A F>AD>A|G>BE>B G>BE>g|f>da>f e/e/e e:|
f|g>be>b g>be>b|f>ad>a f>ad>a|g>be>b g>be>g|f>da>f e/e/e e>f|
g>be>b g>be>b|f>ad>a f>ad>f|g>bf>a e>fd>f|d/^c/B/A/ d<F E/E/E ~E||

